<?xml version="1.0" encoding="UTF-8"?>
<map version="1.10" tiledversion="1.11.2" orientation="orthogonal" renderorder="right-down" width="32" height="32" tilewidth="32" tileheight="32" infinite="0" nextlayerid="7" nextobjectid="1">
 <tileset firstgid="1" source="32x32 first tileset.tsx"/>
 <layer id="1" name="water" width="32" height="32">
  <data encoding="csv">
249,249,249,249,249,249,249,249,249,249,249,249,249,249,249,249,249,249,249,249,249,249,249,249,249,249,249,249,249,249,249,249,
249,249,249,249,249,249,249,249,249,249,249,249,249,249,249,249,249,249,249,249,249,249,249,249,249,249,249,249,249,249,249,249,
249,249,249,249,249,249,249,249,249,249,249,249,249,249,249,249,249,249,249,249,249,249,249,249,249,249,249,249,249,249,249,249,
249,249,249,249,249,249,249,249,249,249,249,249,249,249,249,249,249,249,249,249,249,249,249,249,249,249,249,249,249,249,249,249,
249,249,249,249,249,249,249,249,249,249,249,249,249,249,249,249,249,249,249,249,249,249,249,249,249,249,249,249,249,249,249,249,
249,249,249,249,249,249,249,249,249,249,249,249,249,249,249,249,249,249,249,249,249,249,249,249,249,249,249,249,249,249,249,249,
249,249,249,249,249,249,249,249,249,249,249,249,249,249,249,249,249,249,249,249,249,249,249,249,249,249,249,249,249,249,249,249,
249,249,249,249,249,249,249,249,249,249,249,249,249,249,249,249,249,249,249,249,249,249,249,249,249,249,249,249,249,249,249,249,
249,249,249,249,249,249,249,249,249,249,249,249,249,249,249,249,249,249,249,249,249,249,249,249,249,249,249,249,249,249,249,249,
249,249,249,249,249,249,249,249,249,249,249,249,249,249,249,249,249,249,249,249,249,249,249,249,249,249,249,249,249,249,249,249,
249,249,249,249,249,249,249,249,249,249,249,249,249,249,249,249,249,249,249,249,249,249,249,249,249,249,249,249,249,249,249,249,
249,249,249,249,249,249,249,249,249,249,249,249,249,249,249,249,249,249,249,249,249,249,249,249,249,249,249,249,249,249,249,249,
249,249,249,249,249,249,249,249,249,249,249,249,249,249,249,249,249,249,249,249,249,249,249,249,249,249,249,249,249,249,249,249,
249,249,249,249,249,249,249,249,249,249,249,249,249,249,249,249,249,249,249,249,249,249,249,249,249,249,249,249,249,249,249,249,
249,249,249,249,249,249,249,249,249,249,249,249,249,249,249,249,249,249,249,249,249,249,249,249,249,249,249,249,249,249,249,249,
249,249,249,249,249,249,249,249,249,249,249,249,249,249,249,249,249,249,249,249,249,249,249,249,249,249,249,249,249,249,249,249,
249,249,249,249,249,249,249,249,249,249,249,249,249,249,249,249,249,249,249,249,249,249,249,249,249,249,249,249,249,249,249,249,
249,249,249,249,249,249,249,249,249,249,249,249,249,249,249,249,249,249,249,249,249,249,249,249,249,249,249,249,249,249,249,249,
249,249,249,249,249,249,249,249,249,249,249,249,249,249,249,249,249,249,249,249,249,249,249,249,249,249,249,249,249,249,249,249,
249,249,249,249,249,249,249,249,249,249,249,249,249,249,249,249,249,249,249,249,249,249,249,249,249,249,249,249,249,249,249,249,
249,249,249,249,249,249,249,249,249,249,249,249,249,249,249,249,249,249,249,249,249,249,249,249,249,249,249,249,249,249,249,249,
249,249,249,249,249,249,249,249,249,249,249,249,249,249,249,249,249,249,249,249,249,249,249,249,249,249,249,249,249,249,249,249,
249,249,249,249,249,249,249,249,249,249,249,249,249,249,249,249,249,249,249,249,249,249,249,249,249,249,249,249,249,249,249,249,
249,249,249,249,249,249,249,249,249,249,249,249,249,249,249,249,249,249,249,249,249,249,249,249,249,249,249,249,249,249,249,249,
249,249,249,249,249,249,249,249,249,249,249,249,249,249,249,249,249,249,249,249,249,249,249,249,249,249,249,249,249,249,249,249,
249,249,249,249,249,249,249,249,249,249,249,249,249,249,249,249,249,249,249,249,249,249,249,249,249,249,249,249,249,249,249,249,
249,249,249,249,249,249,249,249,249,249,249,249,249,249,249,249,249,249,249,249,249,249,249,249,249,249,249,249,249,249,249,249,
249,249,249,249,249,249,249,249,249,249,249,249,249,249,249,249,249,249,249,249,249,249,249,249,249,249,249,249,249,249,249,249,
249,249,249,249,249,249,249,249,249,249,249,249,249,249,249,249,249,249,249,249,249,249,249,249,249,249,249,249,249,249,249,249,
249,249,249,249,249,249,249,249,249,249,249,249,249,249,249,249,249,249,249,249,249,249,249,249,249,249,249,249,249,249,249,249,
249,249,249,249,249,249,249,249,249,249,249,249,249,249,249,249,249,249,249,249,249,249,249,249,249,249,249,249,249,249,249,249,
249,249,249,249,249,249,249,249,249,249,249,249,249,249,249,249,249,249,249,249,249,249,249,249,249,249,249,249,249,249,249,249
</data>
 </layer>
 <layer id="2" name="ground" width="32" height="32">
  <data encoding="csv">
0,0,0,0,0,0,0,0,0,0,0,0,0,0,0,0,0,0,0,0,0,0,0,0,0,0,0,0,0,0,0,0,
0,0,0,0,0,0,0,0,0,0,0,0,0,0,0,0,0,0,0,0,0,0,0,0,0,0,0,0,0,0,0,0,
0,0,0,0,0,0,0,0,0,0,0,0,0,0,0,0,0,0,0,0,0,0,0,0,0,0,0,0,0,0,0,0,
0,0,0,0,0,0,0,0,0,0,0,0,0,0,0,0,0,0,0,0,0,0,0,0,0,0,0,0,0,0,0,0,
0,0,0,0,0,0,0,0,0,0,0,0,0,0,0,0,0,0,0,0,0,0,0,0,0,0,0,0,0,0,0,0,
0,0,0,0,0,0,0,0,0,0,0,0,0,0,0,0,0,0,0,0,0,0,0,0,0,0,0,0,0,0,0,0,
0,0,0,0,0,0,0,0,0,0,0,0,0,0,0,0,0,0,0,0,0,0,0,0,0,0,0,0,0,0,0,0,
0,0,0,0,0,0,0,0,1073742096,1073742097,1073742098,1073742098,1073742098,1073742068,1073742068,1073742068,1073742068,1073742068,1073742068,1073742098,1073742098,1073742098,1073742099,1073742100,0,0,0,0,0,0,0,0,
0,0,0,0,0,0,0,1073742096,1073742066,1073741945,1073741945,1073741945,1073741945,1073741945,1073741945,1073741945,1073741945,1073741945,1073741945,1073741945,1073741945,1073741945,1073741945,1073741945,3221225744,0,0,0,0,0,0,0,
0,0,0,0,0,0,1073742096,1073742065,121,121,121,121,121,121,121,121,121,121,121,121,121,121,121,121,1610612857,1610613012,0,0,0,0,0,0,
0,0,0,0,0,1073742096,1073742065,121,121,121,121,121,121,121,121,121,121,121,121,121,121,121,121,121,1610612857,1610613011,0,0,0,0,0,0,
0,0,0,0,0,2684354833,121,121,121,121,121,121,121,121,121,121,121,121,121,121,121,121,121,121,1610612857,1610613010,0,0,0,0,0,0,
0,0,0,0,0,2684354833,121,121,121,121,121,121,121,121,121,121,121,121,121,121,121,121,121,121,1610612857,1610613010,0,0,0,0,0,0,
0,0,0,0,0,2684354833,121,121,121,121,121,121,121,121,121,121,121,121,121,121,121,121,121,121,1610612857,1610613010,0,0,0,0,0,0,
0,0,0,0,0,2684354833,121,121,121,121,121,121,121,121,121,121,121,121,121,121,121,121,121,121,1610612857,1610612980,0,0,0,0,0,0,
0,0,0,0,0,2684354833,121,121,121,121,121,121,121,121,121,121,121,121,121,121,121,121,121,121,1610612857,1610612980,0,0,0,0,0,0,
0,0,0,0,0,2684354833,121,121,121,121,121,121,121,121,121,121,121,121,121,121,121,121,121,121,1610612857,1610612980,0,0,0,0,0,0,
0,0,0,0,0,2684354833,121,121,121,121,121,121,121,121,121,121,121,121,121,121,121,121,121,121,1610612857,1610612980,0,0,0,0,0,0,
0,0,0,0,0,2684354833,121,121,121,121,121,121,121,121,121,121,121,121,121,121,121,121,121,121,1610612857,1610612980,0,0,0,0,0,0,
0,0,0,0,0,2684354833,121,121,121,121,121,121,121,121,121,121,121,121,121,121,121,121,121,121,1610612857,1610612980,0,0,0,0,0,0,
0,0,0,0,0,2684354833,121,121,121,121,121,121,121,121,121,121,121,121,121,121,121,121,121,121,1610612857,1610613010,0,0,0,0,0,0,
0,0,0,0,0,2684354833,121,121,121,121,121,121,121,121,121,121,121,121,121,121,121,121,121,121,1610612857,1610613010,0,0,0,0,0,0,
0,0,0,0,0,2684354833,121,121,121,121,121,121,121,121,121,121,121,121,121,121,121,121,121,121,1610612857,1610613010,0,0,0,0,0,0,
0,0,0,0,0,272,241,121,121,121,121,121,121,121,121,121,121,121,121,121,121,121,121,121,1610612857,1610613009,0,0,0,0,0,0,
0,0,0,0,0,0,272,241,121,121,121,121,121,121,121,121,121,121,121,121,121,121,121,121,1610612978,1610613008,0,0,0,0,0,0,
0,0,0,0,0,0,0,272,242,121,121,121,121,121,121,121,121,121,121,121,121,121,121,121,1610613008,0,0,0,0,0,0,0,
0,0,0,0,0,0,0,0,272,273,274,274,274,244,244,244,244,244,244,274,274,274,275,276,0,0,0,0,0,0,0,0,
0,0,0,0,0,0,0,0,0,0,0,0,0,0,0,0,0,0,0,0,0,0,0,0,0,0,0,0,0,0,0,0,
0,0,0,0,0,0,0,0,0,0,0,0,0,0,0,0,0,0,0,0,0,0,0,0,0,0,0,0,0,0,0,0,
0,0,0,0,0,0,0,0,0,0,0,0,0,0,0,0,0,0,0,0,0,0,0,0,0,0,0,0,0,0,0,0,
0,0,0,0,0,0,0,0,0,0,0,0,0,0,0,0,0,0,0,0,0,0,0,0,0,0,0,0,0,0,0,0,
0,0,0,0,0,0,0,0,0,0,0,0,0,0,0,0,0,0,0,0,0,0,0,0,0,0,0,0,0,0,0,0
</data>
 </layer>
 <layer id="3" name="grass" width="32" height="32">
  <data encoding="csv">
0,0,0,0,0,0,0,0,0,0,0,0,0,0,0,0,0,0,0,0,0,0,0,0,0,0,0,0,0,0,0,0,
0,0,0,0,0,0,0,0,0,0,0,0,0,0,0,0,0,0,0,0,0,0,0,0,0,0,0,0,0,0,0,0,
0,0,0,0,0,0,0,0,0,0,0,0,0,0,0,0,0,0,0,0,0,0,0,0,0,0,0,0,0,0,0,0,
0,0,0,0,0,0,0,0,0,0,0,0,0,0,0,0,0,0,0,0,0,0,0,0,0,0,0,0,0,0,0,0,
0,0,0,0,0,0,0,0,0,0,0,0,0,0,0,0,0,0,0,0,0,0,0,0,0,0,0,0,0,0,0,0,
0,0,0,0,0,0,0,0,0,0,0,0,0,0,0,0,0,0,0,0,0,0,0,0,0,0,0,0,0,0,0,0,
0,0,0,0,0,0,0,0,0,0,0,0,0,0,0,0,0,0,0,0,0,0,0,0,0,0,0,0,0,0,0,0,
0,0,0,0,0,0,0,1073742096,3221225746,0,0,0,0,0,0,0,0,0,0,0,0,0,1073742099,536871184,0,0,0,0,0,0,0,0,
0,0,0,0,0,0,1073742096,1073742066,3221225565,1073741917,1073741917,1073741917,1073741917,1073741917,1073741917,1073741917,1073741917,1073741917,1073741917,1073741917,1073741917,1073741917,1073741917,1073742070,1073742100,0,0,0,0,0,0,0,
0,0,0,0,0,1073742096,1073742066,3221225565,3221225565,1073741917,1073741917,1073741917,1073741917,1073741917,1073741917,1073741917,1073741917,1073741917,1073741917,1073741917,1073741917,1073741917,1073741917,1073741917,1073742070,1073742100,0,0,0,0,0,0,
0,0,0,0,0,3758096659,3221225565,3221225565,3221225565,1073741917,1073741917,1073741917,1073741917,1073741917,1073741917,1073741917,1073741917,1073741917,1073741917,1073741917,1073741917,1073741917,1073741917,1073741917,1073741917,0,0,0,0,0,0,0,
0,0,0,0,0,2684354834,3221225565,3221225565,3221225565,1073741917,1073741917,1073741917,1073741917,1073741917,1073741917,1073741917,1073741917,1073741917,1073741917,1073741917,1073741917,1073741917,1073741917,1073741917,1073741917,0,0,0,0,0,0,0,
0,0,0,0,249,2684354834,3221225565,3221225565,3221225565,1073741917,1073741917,1073741917,1073741917,1073741917,1073741917,1073741917,1073741917,1073741917,1073741917,1073741917,1073741917,1073741917,1073741917,1073741917,1073741917,0,0,0,0,0,0,0,
0,0,0,0,249,0,3221225565,3221225565,3221225565,1073741917,1073741917,1073741917,1073741917,1073741917,1073741917,1073741917,1073741917,1073741917,1073741917,1073741917,1073741917,1073741917,1073741917,1073741917,1073741917,0,0,0,0,0,0,0,
0,0,0,0,249,0,2147483741,2147483741,2147483741,93,93,93,93,93,93,93,93,93,93,93,93,93,93,93,93,0,0,0,0,0,0,0,
0,0,0,0,0,0,2147483741,2147483741,2147483741,93,93,93,93,93,93,93,93,93,93,93,93,93,93,93,93,0,0,0,0,0,0,0,
0,0,0,0,0,0,2147483741,2147483741,2147483741,93,93,93,93,93,93,93,93,93,93,93,93,93,93,93,93,0,0,0,0,0,0,0,
0,0,0,0,0,0,2147483741,2147483741,2147483741,93,93,93,93,93,93,93,93,93,93,93,93,93,93,93,93,0,0,0,0,0,0,0,
0,0,0,0,0,0,2147483741,2147483741,2147483741,93,93,93,93,93,93,93,93,93,93,93,93,93,93,93,93,0,0,0,0,0,0,0,
0,0,0,0,0,0,2147483741,2147483741,2147483741,93,93,93,93,93,93,93,93,93,93,93,93,93,93,93,93,0,0,0,0,0,0,0,
0,0,0,0,0,0,2147483741,2147483741,2147483741,93,93,93,93,93,93,93,93,93,93,93,93,93,93,93,93,0,0,0,0,0,0,0,
0,0,0,0,0,0,2147483741,2147483741,2147483741,93,93,93,93,93,93,93,93,93,93,93,93,93,93,93,93,0,0,0,0,0,0,0,
0,0,0,0,0,0,2147483741,2147483741,2147483741,93,93,93,93,93,93,93,93,93,93,93,93,93,93,93,93,0,0,0,0,0,0,0,
0,0,0,0,0,2684354835,2147483741,2147483741,2147483741,93,93,93,93,93,93,93,93,93,93,93,93,93,93,93,93,0,0,0,0,0,0,0,
0,0,0,0,0,272,242,2147483741,2147483741,93,93,93,93,93,93,93,93,93,93,93,93,93,93,93,246,276,0,0,0,0,0,0,
0,0,0,0,0,0,272,242,2147483741,93,93,93,93,93,93,93,93,93,93,93,93,93,93,246,276,0,0,0,0,0,0,0,
0,0,0,0,0,0,0,272,2147483922,0,0,0,0,0,0,0,0,0,0,0,0,0,275,1610613008,0,0,0,0,0,0,0,0,
0,0,0,0,0,0,0,0,0,0,0,0,0,0,0,0,0,0,0,0,0,0,0,0,0,0,0,0,0,0,0,0,
0,0,0,0,0,0,0,0,0,0,0,0,0,0,0,0,0,0,0,0,0,0,0,0,0,0,0,0,0,0,0,0,
0,0,0,0,0,0,0,0,0,0,0,0,0,0,0,0,0,0,0,0,0,0,0,0,0,0,0,0,0,0,0,0,
0,0,0,0,0,0,0,0,0,0,0,0,0,0,0,0,0,0,0,0,0,0,0,0,0,0,0,0,0,0,0,0,
0,0,0,0,0,0,0,0,0,0,0,0,0,0,0,0,0,0,0,0,0,0,0,0,0,0,0,0,0,0,0,0
</data>
 </layer>
 <layer id="4" name="Tile Layer 4" width="32" height="32">
  <data encoding="csv">
0,0,0,0,0,0,0,0,0,0,0,0,0,0,0,0,0,0,0,0,0,0,0,0,0,0,0,0,0,0,0,0,
0,0,0,0,0,0,0,0,0,0,0,0,0,0,0,0,0,0,0,0,0,0,0,0,0,0,0,0,0,0,0,0,
0,0,0,0,0,0,0,0,0,0,0,0,0,0,0,0,0,0,0,0,0,0,0,0,0,0,0,0,0,0,0,0,
0,0,0,0,0,0,0,0,0,0,0,0,0,0,0,0,0,0,0,0,0,0,0,0,0,0,0,0,0,0,0,0,
0,0,0,0,0,0,0,0,0,0,0,0,0,0,0,0,0,0,0,0,0,0,0,0,0,0,0,0,0,0,0,0,
0,0,0,0,0,0,0,0,0,0,0,0,0,0,0,0,0,0,0,0,0,0,0,0,0,0,0,0,0,0,0,0,
0,0,0,0,0,0,0,0,0,0,0,0,0,0,0,0,0,0,0,0,0,0,0,0,0,0,0,0,0,0,0,0,
0,0,0,0,0,0,0,0,0,0,0,0,0,0,0,0,0,0,0,0,0,0,0,0,0,0,0,0,0,0,0,0,
0,0,0,0,0,0,0,0,0,131,132,132,132,132,22,23,24,25,132,132,132,133,0,0,0,0,0,0,0,0,0,0,
0,0,0,0,0,0,0,0,0,161,162,162,162,162,52,53,54,55,162,159,159,163,0,0,0,0,0,0,0,0,0,0,
0,0,0,0,0,0,218,219,220,161,162,162,162,162,82,83,84,85,162,162,162,163,218,219,220,0,0,0,0,0,0,0,
0,0,0,0,0,0,248,249,250,161,162,162,162,162,162,162,162,162,162,162,162,163,248,249,250,0,0,0,0,0,0,0,
0,0,0,0,0,0,278,279,280,1610612941,1610612971,1610613001,162,162,162,162,162,162,162,2684354732,2684354702,2684354672,278,279,280,0,0,0,0,0,0,0,
0,0,0,0,0,0,0,0,0,1610612940,1610612970,1610613000,162,162,162,162,162,162,162,2684354733,2684354703,2684354673,0,0,0,0,0,0,0,0,0,0,
0,0,0,0,0,0,0,0,0,1610612939,1610612969,1610612999,162,162,162,162,162,162,162,2684354734,2684354704,2684354674,0,0,0,0,0,0,0,0,0,0,
0,0,0,0,0,0,0,0,0,1610612938,1610612968,1610612998,162,162,162,162,162,162,162,2684354735,2684354705,2684354675,0,0,0,0,0,0,0,0,0,0,
0,0,0,0,0,0,0,0,0,161,162,162,162,162,162,162,162,162,162,162,162,163,0,0,0,0,0,0,0,0,0,0,
0,0,0,0,0,0,0,0,0,161,162,162,162,162,162,162,162,162,162,162,162,163,0,0,0,0,0,0,0,0,0,0,
0,0,0,0,0,0,0,0,0,161,162,162,162,162,162,162,162,162,162,162,224,163,269,270,0,0,0,0,0,0,0,0,
0,0,0,0,0,0,0,0,0,191,192,192,192,192,192,192,192,192,192,192,192,193,299,300,0,0,0,0,0,0,0,0,
0,0,0,0,0,0,0,0,0,0,0,134,134,134,134,134,134,134,134,134,0,0,0,0,0,0,0,0,0,0,0,0,
0,0,0,0,0,0,0,218,219,220,0,134,134,134,134,134,134,134,134,134,0,218,219,220,0,0,0,0,0,0,0,0,
0,0,0,0,0,0,0,248,249,250,0,134,134,134,134,134,134,134,134,134,0,248,249,250,0,0,0,0,0,0,0,0,
0,0,0,0,0,0,0,278,279,280,0,134,134,134,134,134,134,134,134,134,0,278,279,280,0,0,0,0,0,0,0,0,
0,0,0,0,0,0,0,0,0,0,0,0,0,0,0,0,0,0,0,0,0,0,0,0,0,0,0,0,0,0,0,0,
0,0,0,0,0,0,0,0,0,0,0,0,0,0,0,0,0,0,0,0,0,0,0,0,0,0,0,0,0,0,0,0,
0,0,0,0,0,0,0,0,0,0,0,0,0,0,0,0,0,0,0,0,0,0,0,0,0,0,0,0,0,0,0,0,
0,0,0,0,0,0,0,0,0,0,0,0,0,0,0,0,0,0,0,0,0,0,0,0,0,0,0,0,0,0,0,0,
0,0,0,0,0,0,0,0,0,0,0,0,0,0,0,0,0,0,0,0,0,0,0,0,0,0,0,0,0,0,0,0,
0,0,0,0,0,0,0,0,0,0,0,0,0,0,0,0,0,0,0,0,0,0,0,0,0,0,0,0,0,0,0,0,
0,0,0,0,0,0,0,0,0,0,0,0,0,0,0,0,0,0,0,0,0,0,0,0,0,0,0,0,0,0,0,0,
0,0,0,0,0,0,0,0,0,0,0,0,0,0,0,0,0,0,0,0,0,0,0,0,0,0,0,0,0,0,0,0
</data>
 </layer>
 <layer id="6" name="Tile Layer 6" width="32" height="32">
  <data encoding="csv">
0,0,0,0,0,0,0,0,0,0,0,0,0,0,0,0,0,0,0,0,0,0,0,0,0,0,0,0,0,0,0,0,
0,0,0,0,0,0,0,0,0,0,0,0,0,0,0,0,0,0,0,0,0,0,0,0,0,0,0,0,0,0,0,0,
0,0,0,0,0,0,0,0,0,0,0,0,0,0,0,0,0,0,0,0,0,0,0,0,0,0,0,0,0,0,0,0,
0,0,0,0,0,0,0,0,0,0,0,0,0,0,0,0,0,0,0,0,0,0,0,0,0,0,0,0,0,0,0,0,
0,0,0,0,0,0,0,0,0,0,0,0,0,0,0,0,0,0,0,0,0,0,0,0,0,0,0,0,0,0,0,0,
0,0,0,0,0,0,0,0,0,0,0,0,0,0,0,0,0,0,0,0,0,0,0,0,0,0,0,0,0,0,0,0,
0,0,0,0,0,0,0,0,0,0,0,0,0,0,0,0,0,0,0,0,0,0,0,0,0,0,0,0,0,0,0,0,
0,0,0,0,0,0,0,0,0,0,0,0,0,0,0,0,0,0,0,0,0,0,0,0,0,0,0,0,0,0,0,0,
0,0,0,0,0,0,0,0,0,0,0,0,0,0,0,0,0,0,0,0,0,0,0,0,0,0,0,0,0,0,0,0,
0,0,0,0,0,0,0,0,0,0,0,0,0,0,0,0,0,0,0,0,0,0,0,0,0,0,0,0,0,0,0,0,
0,0,0,0,0,0,0,0,0,0,0,0,0,0,0,0,0,0,0,0,0,0,0,0,0,0,0,0,0,0,0,0,
0,0,0,0,0,0,0,0,0,0,0,0,0,0,0,0,0,0,0,0,0,0,0,0,0,0,0,0,0,0,0,0,
0,0,0,0,0,0,0,0,0,0,0,0,0,0,0,0,0,0,0,0,0,0,0,0,0,0,0,0,0,0,0,0,
0,0,0,0,0,0,0,0,0,0,0,0,0,0,0,0,0,0,0,0,0,0,0,0,0,0,0,0,0,0,0,0,
0,0,0,0,0,0,0,0,0,0,0,0,0,0,0,0,0,0,0,0,0,0,0,0,0,0,0,0,0,0,0,0,
0,0,0,0,0,0,0,0,0,0,0,0,0,0,0,0,0,0,0,0,0,0,0,0,0,0,0,0,0,0,0,0,
0,0,0,0,0,0,0,0,0,0,0,0,0,0,0,0,0,0,0,0,0,0,0,0,0,0,0,0,0,0,0,0,
0,0,0,0,0,0,0,0,0,0,0,0,0,0,0,0,0,0,0,0,0,0,0,0,0,0,0,0,0,0,0,0,
0,0,0,0,0,0,0,0,0,0,0,0,0,0,0,0,0,0,0,0,0,0,0,0,0,0,0,0,0,0,0,0,
0,0,0,0,0,0,0,0,0,0,0,0,0,0,0,0,0,0,0,0,0,0,0,165,0,0,0,0,0,0,0,0,
0,0,0,0,0,0,0,0,0,0,0,0,0,0,0,0,0,0,0,0,0,0,0,0,0,0,0,0,0,0,0,0,
0,0,0,0,0,0,0,0,0,0,0,0,0,0,0,0,0,0,0,0,0,0,0,0,0,0,0,0,0,0,0,0,
0,0,0,0,0,0,0,0,0,0,0,0,0,0,0,0,0,0,0,0,0,0,0,0,0,0,0,0,0,0,0,0,
0,0,0,0,0,0,0,0,0,0,0,0,0,0,0,0,0,0,0,0,0,165,0,165,0,0,0,0,0,0,0,0,
0,0,0,0,0,0,0,0,0,0,0,0,0,0,0,0,0,0,0,0,0,0,0,0,0,0,0,0,0,0,0,0,
0,0,0,0,0,0,0,0,0,0,0,0,0,0,0,0,0,0,0,0,0,0,0,0,0,0,0,0,0,0,0,0,
0,0,0,0,0,0,0,0,0,0,0,0,0,0,0,0,0,158,160,0,0,0,0,0,0,0,0,0,0,0,0,0,
0,0,0,0,0,0,0,0,0,0,0,0,0,0,0,0,0,158,160,0,0,0,0,0,0,0,0,0,0,0,0,0,
0,0,0,0,0,0,0,0,0,0,0,0,0,0,0,0,0,158,160,0,0,0,0,41,42,43,0,0,0,0,0,0,
0,0,0,0,0,0,0,0,0,0,0,0,0,0,0,0,0,158,129,129,129,129,129,71,72,73,0,0,0,0,0,0,
0,0,0,0,0,0,0,0,0,0,0,0,0,0,0,0,0,188,189,189,189,189,189,189,102,103,0,0,0,0,0,0,
0,0,0,0,0,0,0,0,0,0,0,0,0,0,0,0,0,0,0,0,0,0,0,0,0,0,0,0,0,0,0,0
</data>
 </layer>
 <layer id="5" name="tree" width="32" height="32">
  <data encoding="csv">
0,0,0,0,0,0,0,0,0,0,0,0,0,0,0,0,0,0,0,0,0,0,0,0,0,0,0,0,0,0,0,0,
0,0,0,0,0,0,0,0,0,0,0,0,0,0,0,0,0,0,0,0,0,0,0,0,0,0,0,0,0,0,0,0,
0,0,0,0,0,0,0,0,0,0,0,0,0,0,0,0,0,0,0,0,0,0,0,0,0,0,0,0,0,0,0,0,
0,0,0,0,0,0,0,0,0,0,0,0,0,0,0,0,0,0,0,0,0,0,0,0,0,0,0,0,0,0,0,0,
0,0,0,0,0,0,0,0,0,0,0,0,0,0,0,0,0,0,0,0,0,0,0,0,0,0,0,0,0,0,0,0,
0,0,0,0,0,0,0,0,0,0,0,0,0,0,0,0,0,0,0,0,0,0,0,0,0,0,0,0,0,0,0,0,
0,0,0,0,0,0,0,0,0,0,0,0,0,0,0,0,0,0,0,0,0,0,0,0,0,0,0,0,0,0,0,0,
0,0,0,0,0,0,0,0,0,0,0,0,0,0,0,0,0,0,0,0,0,0,0,0,0,0,0,0,0,0,0,0,
0,0,0,0,0,0,0,207,208,0,0,0,0,0,0,20,0,0,0,0,0,0,0,0,0,0,0,0,0,0,0,0,
0,0,0,0,0,0,0,237,238,0,224,0,0,170,0,50,0,0,0,0,224,0,0,0,0,0,0,0,0,0,0,0,
0,0,0,0,0,0,0,0,0,0,0,0,0,170,0,0,0,0,86,0,0,0,0,0,0,0,0,0,0,0,0,0,
0,0,0,0,0,0,0,0,0,0,86,0,0,0,0,0,0,0,0,86,0,0,0,0,0,0,0,0,0,0,0,0,
0,0,0,0,0,0,117,118,119,1610612942,1610612972,0,0,0,0,0,0,0,0,0,0,0,117,118,119,0,0,0,0,0,0,0,
0,0,0,0,0,0,147,148,149,0,0,0,0,0,0,0,0,0,0,0,0,0,147,148,149,0,0,0,0,0,0,0,
0,0,0,0,0,0,177,178,179,0,0,0,0,0,0,0,0,0,0,0,0,0,117,118,119,0,0,0,0,0,0,0,
0,0,0,0,0,0,117,118,119,0,0,0,0,0,0,0,0,0,0,0,0,0,147,148,149,0,0,0,0,0,0,0,
0,0,0,0,0,0,147,148,149,0,170,170,0,0,0,0,0,0,0,170,170,0,117,118,119,0,0,0,0,0,0,0,
0,0,0,0,0,0,177,178,179,0,0,0,0,0,0,0,0,0,0,0,0,0,147,148,149,0,0,0,0,0,0,0,
0,0,0,0,0,0,147,148,149,0,224,0,0,0,0,0,0,0,0,0,0,0,177,178,179,0,0,0,0,0,0,0,
0,0,0,0,0,0,177,178,179,0,0,0,0,0,0,0,0,0,0,0,0,0,0,0,0,0,0,0,0,0,0,0,
0,0,0,0,0,0,269,270,0,0,0,0,0,0,0,0,0,0,0,0,0,0,0,0,0,0,0,0,0,0,0,0,
0,0,0,0,0,0,299,300,0,165,0,0,0,0,0,0,0,0,0,0,0,165,0,165,0,0,0,0,0,0,0,0,
0,0,0,0,0,0,269,270,0,0,0,0,0,0,0,0,0,0,0,0,0,0,0,0,0,0,0,0,0,0,0,0,
0,0,0,0,0,0,299,207,208,165,0,0,0,0,0,0,0,0,0,0,0,0,269,270,0,0,0,0,0,0,0,0,
0,0,0,0,0,0,0,237,238,208,165,208,0,0,0,0,0,0,0,0,0,0,299,300,0,0,0,0,0,0,0,0,
0,0,0,0,0,0,0,0,237,238,237,238,0,0,0,0,0,0,0,0,0,165,0,0,0,0,0,0,0,0,0,0,
0,0,0,0,0,0,0,0,0,0,0,0,0,0,0,0,0,0,0,0,0,0,0,0,0,0,0,0,0,0,0,0,
0,0,0,0,0,0,0,0,0,0,0,0,0,0,0,0,0,0,0,0,0,0,0,0,0,0,0,0,0,0,0,0,
0,0,0,0,0,0,0,0,0,0,0,0,0,0,0,0,0,0,0,0,0,0,0,38,39,40,0,0,0,0,0,0,
0,0,0,0,0,0,0,0,0,0,0,0,0,0,0,0,0,0,159,0,0,0,0,68,104,70,0,0,0,0,0,0,
0,0,0,0,0,0,0,0,0,0,0,0,0,0,0,0,0,0,0,0,0,0,0,98,99,100,0,0,0,0,0,0,
0,0,0,0,0,0,0,0,0,0,0,0,0,0,0,0,0,0,0,0,0,0,0,0,0,0,0,0,0,0,0,0
</data>
 </layer>
</map>
